svg/next.svg

<svg width="24" height="24" viewBox="0 0 24 24" fill="none" xmlns="http://www.w3.org/2000/svg">
<path d="M5 7.76621C5 6.21162 6.69594 5.2514 8.02899 6.05123L15.0853 10.285C16.38 11.0618 16.38 12.9382 15.0853 13.715L8.02899 17.9488C6.69595 18.7486 5 17.7884 5 16.2338V7.76621ZM14.0563 12L7 7.76621V16.2338L14.0563 12Z" fill="#0D0D0D"/>
<path d="M18 6.00002C18.5523 6.00002 19 6.44774 19 7.00002V17C19 17.5523 18.5523 18 18 18C17.4477 18 17 17.5523 17 17V7.00002C17 6.44774 17.4477 6.00002 18 6.00002Z" fill="#0D0D0D"/>
</svg>

<svg width="24" height="24" fill="none" xmlns="http://www.w3.org/2000/svg"><path d="M5 7.766c0-1.554 1.696-2.515 3.029-1.715l7.056 4.234c1.295.777 1.295 2.653 0 3.43L8.03 17.949c-1.333.8-3.029-.16-3.029-1.715V7.766zM14.056 12L7 7.766v8.468L14.056 12zM18 6a1 1 0 011 1v10a1 1 0 11-2 0V7a1 1 0 011-1z" fill="#0D0D0D"/></svg>
